X:1
T:Purpose, irr.
T:Purpose, irr.
T:Martin Fallas Shaw, 1915
T:Public Domain Courtesy of the Cyber Hymnal™
C:Martin Fallas Shaw, 1915
Z:Public Domain
Z:Courtesy of the Cyber Hymnal™
%%score ( 1 2 ) ( 3 4 )
L:1/8
M:4/4
K:Ab
V:1 treble 
V:2 treble 
V:3 bass 
V:4 bass 
V:1
|: [A,CF]2 GG [CEA]2 GG | [A,CF]2 [G,B,E]2 [F,A,C]2 EE | AA G2 FF [B,DE]2 | [A,CF-]6 FF | %4
 [A,CF]2 GG [CEA]2 GG | [A,CF]2 GE [F,A,C]2 EE | [A,CF-A]2 [B,DF-G]2 [CEFA]2 BB | c6- c2 | %8
 [C=EG]2 AB [EGc]2 [_DFB]2 | [=EG]G [=DF]2 [EG]2 [CDAc]2 | [B,E-B]2 AA [G,G]2 [F,DF]2 | %11
 C6 [F,A,]2 [=E,G,]2 CC | =D2 =EE [A,F]2 GG x5 | [A,CFA]2 BB [EFce]2 dd | %14
 [CAc]2 [FB]2 AF [G,DG]2 |1,2,3 z2 B,2 A,4 :|4 F8 [G,B,EG]2 [A,CF-A]2 [B,FGB]2 || [CF=Ac]8 |] %18
V:2
|: x2 [B,D]2 x [B,D]2 x | x6 [G,B,]2 | [A,C]4- [A,C]2 x2 | x6 [B,D]2 | x2 [B,D]2 x [B,D]2 x | %5
 x2 [G,B,]2 x [G,B,]2 x | x6 [B,DG]2 | [CEA]8 | x2 [=DF]2 x4 | C6 x2 | x2 [A,E-]2 E2 x2 | B,2 x10 | %12
 C8 B,2 x G,2 | x2 [B,E]2 x [DG]2 x | x4 [A,E]2 x2 |1,2,3 [A,CF]8 :|4 [F,C]2 x12 || x8 |] %18
V:3
|: D,8 | F,,2 G,,2 A,,2 G,,2 | F,,2 E,,2 C,,2 E,,2 | A,,2 G,,2 F,,2 E,,2 | F,,8 | %5
 F,,2 G,,2 A,,2 G,,2 | F,,2 E,,2 C,,2 E,,2 | A,,2 G,,2 A,,2 B,,2 | C,4 G,,2 A,,B,, | %9
 C,2 B,,2 G,,2 F,,2 | G,,2 C,2 B,,2 A,,2 | C,6 z2 x4 | z2 C,,2 =D,,2 =E,,2 x5 | %13
 F,,2 G,,2 A,,2 B,,2 | E,2 D,2 C,2 B,,2 |1,2,3 A,,2 G,,2 F,,4 :|4 A,,2 G,,2 F,,E,, D,,2 x6 || %17
 [F,,F,=A,]8 |] %18
V:4
|: x8 | x8 | x8 | x8 | x8 | x8 | x8 | x8 | x8 | x8 | x8 | G,,2 F,,2 C,,2 x6 | x13 | x8 | x8 |1,2,3 %15
 x8 :|4 x14 || x8 |] %18

